X:235
T: Firefly
S: "Music from Ireland 3" (Bulmer & Sharpley)
N: as a "gan ainm" (tune #52)
Z: B.Black
R: jig
M: 6/8
L: 1/8
K: G
A|BDD cDD|BDD AFD|GBd gdB|cBc AFD|
BDD cDD|BDD AFD|GBd gdB|cAF G2 :|
D|GBd gfg|ece dBG|cBA BAG|DFA cBA|
GBd gfg|ece dBG|cBA BAG|DFA G2 :|
